X:95
T:Black Boy Alley. ThoH.095
Q:3/8=100
M:6/8
L:1/8
B:Thompson's Compleat Collection of 120 Favourite Hornpipes.
Z:Village Music Project, Simon Wilson 2016
O:England.
K:Gm
d2BA2G|Bdg dBG|d2BA2G|d2G^F2D|
d(g/a/b)c2B|A(f/g/a)B2A|G(c/d/e)d2c|BcA!fine!G3:|
|:B2df2F|Bdf fdB|c2eg2c|=Bdg gdB|
c2=ea2g|f=ed =e^cA|d2=e fga|T=e3d3!D.C.!:|

